icons/container-24.svg

<svg xmlns="http://www.w3.org/2000/svg" width="24" height="24" viewBox="0 0 24 24"><path d="M13.152.682a2.251 2.251 0 012.269 0l.007.004 6.957 4.276a2.277 2.277 0 011.126 1.964v7.516c0 .81-.432 1.56-1.133 1.968l-.002.001-11.964 7.037-.004.003c-.706.41-1.578.41-2.284 0l-.026-.015-6.503-4.502a2.268 2.268 0 01-1.096-1.943V9.438c0-.392.1-.77.284-1.1l.003-.006.014-.026c.197-.342.48-.627.82-.827h.002L13.152.681zm.757 1.295h-.001L2.648 8.616l6.248 4.247a.775.775 0 00.758-.01h.001l11.633-6.804-6.629-4.074a.75.75 0 00-.75.003zM8.517 14.33a2.286 2.286 0 01-.393-.18l-.023-.014-6.102-4.147v7.003c0 .275.145.528.379.664l.025.014 6.114 4.232V14.33zM18 9.709l-3.25 1.9v7.548L18 17.245zm-7.59 4.438l-.002.002a2.296 2.296 0 01-.391.18v7.612l3.233-1.902v-7.552zm9.09-5.316v7.532l2.124-1.25a.776.776 0 00.387-.671V7.363z"/></svg>

<svg xmlns="http://www.w3.org/2000/svg" width="24" height="24" viewBox="0 0 24 24">
  <defs/>
  <path d="M13.152,0.682 C13.853,0.273 14.72,0.273 15.421,0.682 L15.428,0.686 L22.385,4.962 C23.082,5.37 23.511,6.118 23.511,6.926 L23.511,14.442 C23.511,15.252 23.079,16.002 22.378,16.41 L22.376,16.411 L10.412,23.448 L10.408,23.451 C9.702,23.861 8.83,23.861 8.124,23.451 L8.098,23.436 L1.595,18.934 C0.914,18.523 0.499,17.786 0.499,16.991 L0.499,9.438 C0.499,9.046 0.599,8.668 0.783,8.338 L0.786,8.332 L0.8,8.306 C0.997,7.964 1.28,7.679 1.62,7.479 L1.622,7.479 L13.152,0.681 Z M13.909,1.977 L13.908,1.977 L2.648,8.616 L8.896,12.863 C9.133,12.992 9.42,12.988 9.654,12.853 L9.655,12.853 L21.288,6.049 L14.659,1.975 C14.426,1.842 14.141,1.843 13.909,1.978 Z M8.517,14.33 C8.381,14.283 8.249,14.222 8.124,14.15 L8.101,14.136 L1.999,9.989 L1.999,16.992 C1.999,17.267 2.144,17.52 2.378,17.656 L2.403,17.67 L8.517,21.902 L8.517,14.33 Z M18,9.709 L14.75,11.609 L14.75,19.157 L18,17.245 Z M10.41,14.147 L10.408,14.149 C10.282,14.222 10.151,14.282 10.017,14.329 L10.017,21.941 L13.25,20.039 L13.25,12.487 Z M19.5,8.831 L19.5,16.363 L21.624,15.113 C21.863,14.974 22.011,14.719 22.011,14.442 L22.011,7.363 Z"/>
</svg>
